X:704
L:1/8
Q:1/2=100
M:3/2
K:Amin
 a4 (edcB) c2 A2 | (fedc) (dBcA) ^G4 | (AE)(BE) (cE)(BE) A2 (cB) | (AGFE) (DCB,A,) ^G,4 | 
 a4 (edcB) c2 A2 | (fedc) (dBcA) ^G4 | (AE)(BE) (cE)(BE) A2 (cB) | (AGFE) (DCB,C) A,4 || 
 g4 (fedc) B4 | _B2 (dc) (BAGB) (AFEF) | a4 (gfed) ^c4 | d2 (fe) (dcBA) (^GEFG) | 
 (AcBA) (acBA) (ecBA) | (bg)(ae) (fd)(e^c) d4 | (fdcB) (ecBA) (dBA^G) | (AEFD) (ECDB,) A,4 |]

